assets/1. F-P/Gem stone/Color/Gem.Stone-color.svg

<svg width="100%" height="100%" viewBox="0 0 32 32" fill="none" xmlns="http://www.w3.org/2000/svg">
<path d="M9.23438 14.25L15.9844 30.1641L23.5156 14.25H9.23438Z" fill="#72ADF1"/>
<path d="M9.23438 14.25L15.9844 30.1641L23.5156 14.25H9.23438Z" fill="url(#paint0_linear_18_17750)"/>
<path d="M9.23438 14.25L15.9844 30.1641L23.5156 14.25H9.23438Z" fill="url(#paint1_linear_18_17750)"/>
<path d="M7.54688 7.96875L2.04688 15.375H11.0781L16 7.96875H7.54688Z" fill="url(#paint2_linear_18_17750)"/>
<path d="M7.54688 7.96875L2.04688 15.375H11.0781L16 7.96875H7.54688Z" fill="url(#paint3_linear_18_17750)"/>
<path d="M7.54688 7.96875L2.04688 15.375H11.0781L16 7.96875H7.54688Z" fill="url(#paint4_linear_18_17750)"/>
<path d="M24.4297 7.96875L29.9297 15.375H20.8984L15.9766 7.96875H24.4297Z" fill="url(#paint5_radial_18_17750)"/>
<path d="M24.4297 7.96875L29.9297 15.375H20.8984L15.9766 7.96875H24.4297Z" fill="url(#paint6_linear_18_17750)"/>
<path d="M15.9902 30.1738L2.04688 15.375H11.0781L15.9902 30.1738Z" fill="url(#paint7_linear_18_17750)"/>
<path d="M15.9902 30.1738L2.04688 15.375H11.0781L15.9902 30.1738Z" fill="url(#paint8_linear_18_17750)"/>
<path d="M15.9844 30.1641L29.9336 15.375H20.9023L15.9844 30.1641Z" fill="url(#paint9_radial_18_17750)"/>
<path d="M15.9844 30.1641L29.9336 15.375H20.9023L15.9844 30.1641Z" fill="url(#paint10_linear_18_17750)"/>
<path d="M15.9844 30.1641L29.9336 15.375H20.9023L15.9844 30.1641Z" fill="url(#paint11_linear_18_17750)"/>
<path d="M11.0781 15.3749H20.8984L15.9883 7.98633L11.0781 15.3749Z" fill="url(#paint12_linear_18_17750)"/>
<defs>
<linearGradient id="paint0_linear_18_17750" x1="16.375" y1="14.8484" x2="16.375" y2="16.848" gradientUnits="userSpaceOnUse">
<stop stop-color="#72C8F9"/>
<stop offset="1" stop-color="#73AEF2" stop-opacity="0"/>
</linearGradient>
<linearGradient id="paint1_linear_18_17750" x1="19.1912" y1="25.113" x2="15.9474" y2="24.4909" gradientUnits="userSpaceOnUse">
<stop stop-color="#73D2FF"/>
<stop offset="1" stop-color="#73AEF2" stop-opacity="0"/>
</linearGradient>
<linearGradient id="paint2_linear_18_17750" x1="11.1719" y1="15" x2="7.23437" y2="9.875" gradientUnits="userSpaceOnUse">
<stop offset="0.329505" stop-color="#2E97D8"/>
<stop offset="1" stop-color="#1C82CA"/>
</linearGradient>
<linearGradient id="paint3_linear_18_17750" x1="2.48437" y1="16.0625" x2="6.29687" y2="13.125" gradientUnits="userSpaceOnUse">
<stop stop-color="#2E8BDB"/>
<stop offset="1" stop-color="#2E8BDB" stop-opacity="0"/>
</linearGradient>
<linearGradient id="paint4_linear_18_17750" x1="13.5701" y1="12.4711" x2="12.7036" y2="11.9157" gradientUnits="userSpaceOnUse">
<stop stop-color="#32B3EA"/>
<stop offset="1" stop-color="#32B3EA" stop-opacity="0"/>
</linearGradient>
<radialGradient id="paint5_radial_18_17750" cx="0" cy="0" r="1" gradientUnits="userSpaceOnUse" gradientTransform="translate(17.9844 12.5) rotate(-5.73208) scale(8.29146 11.2063)">
<stop stop-color="#20D5FC"/>
<stop offset="1" stop-color="#20BFF7"/>
</radialGradient>
<linearGradient id="paint6_linear_18_17750" x1="19.5781" y1="13.5937" x2="20.2031" y2="13.1875" gradientUnits="userSpaceOnUse">
<stop offset="0.17" stop-color="#20D0F6"/>
<stop offset="1" stop-color="#20D0F6" stop-opacity="0"/>
</linearGradient>
<linearGradient id="paint7_linear_18_17750" x1="9.01855" y1="15.375" x2="15.9902" y2="29.7342" gradientUnits="userSpaceOnUse">
<stop offset="0.379031" stop-color="#296BCC"/>
<stop offset="1" stop-color="#3E7DE1"/>
</linearGradient>
<linearGradient id="paint8_linear_18_17750" x1="9.01855" y1="15.375" x2="9.01855" y2="15.7813" gradientUnits="userSpaceOnUse">
<stop stop-color="#2D75D2"/>
<stop offset="1" stop-color="#2D75D2" stop-opacity="0"/>
</linearGradient>
<radialGradient id="paint9_radial_18_17750" cx="0" cy="0" r="1" gradientUnits="userSpaceOnUse" gradientTransform="translate(17.2344 29.5625) rotate(-60.9647) scale(11.7949 6.18417)">
<stop stop-color="#42A2EC"/>
<stop offset="1" stop-color="#3294E4"/>
</radialGradient>
<linearGradient id="paint10_linear_18_17750" x1="17.5625" y1="24.8984" x2="18.0625" y2="25.0937" gradientUnits="userSpaceOnUse">
<stop stop-color="#368FE1"/>
<stop offset="1" stop-color="#368FE1" stop-opacity="0"/>
</linearGradient>
<linearGradient id="paint11_linear_18_17750" x1="22.959" y1="15.0625" x2="22.959" y2="16.0937" gradientUnits="userSpaceOnUse">
<stop stop-color="#309EE9"/>
<stop offset="1" stop-color="#309EE9" stop-opacity="0"/>
</linearGradient>
<linearGradient id="paint12_linear_18_17750" x1="19.6719" y1="11.3124" x2="11.0781" y2="17.3124" gradientUnits="userSpaceOnUse">
<stop stop-color="#6CE8FE"/>
<stop offset="0.642405" stop-color="#68CAEA"/>
</linearGradient>
</defs>
</svg>

<svg width="100%" height="100%" viewBox="0 0 32 32" xmlns="http://www.w3.org/2000/svg"><path fill="#72ADF1" d="m9.234 14.25 6.75 15.914 7.532-15.914z"/><path fill="url(#a)" d="m9.234 14.25 6.75 15.914 7.532-15.914z"/><path fill="url(#b)" d="m9.234 14.25 6.75 15.914 7.532-15.914z"/><path fill="url(#c)" d="m7.547 7.969-5.5 7.406h9.031L16 7.969z"/><path fill="url(#d)" d="m7.547 7.969-5.5 7.406h9.031L16 7.969z"/><path fill="url(#e)" d="m7.547 7.969-5.5 7.406h9.031L16 7.969z"/><path fill="url(#f)" d="m24.43 7.969 5.5 7.406h-9.032l-4.921-7.406z"/><path fill="url(#g)" d="m24.43 7.969 5.5 7.406h-9.032l-4.921-7.406z"/><path fill="url(#h)" d="M15.99 30.174 2.047 15.375h9.031z"/><path fill="url(#i)" d="M15.99 30.174 2.047 15.375h9.031z"/><path fill="url(#j)" d="m15.984 30.164 13.95-14.789h-9.032z"/><path fill="url(#k)" d="m15.984 30.164 13.95-14.789h-9.032z"/><path fill="url(#l)" d="m15.984 30.164 13.95-14.789h-9.032z"/><path fill="url(#m)" d="M11.078 15.375h9.82l-4.91-7.389z"/><defs><linearGradient id="a" x1="16.375" x2="16.375" y1="14.848" y2="16.848" gradientUnits="userSpaceOnUse"><stop stop-color="#72C8F9"/><stop offset="1" stop-color="#73AEF2" stop-opacity="0"/></linearGradient><linearGradient id="b" x1="19.191" x2="15.947" y1="25.113" y2="24.491" gradientUnits="userSpaceOnUse"><stop stop-color="#73D2FF"/><stop offset="1" stop-color="#73AEF2" stop-opacity="0"/></linearGradient><linearGradient id="c" x1="11.172" x2="7.234" y1="15" y2="9.875" gradientUnits="userSpaceOnUse"><stop offset=".33" stop-color="#2E97D8"/><stop offset="1" stop-color="#1C82CA"/></linearGradient><linearGradient id="d" x1="2.484" x2="6.297" y1="16.063" y2="13.125" gradientUnits="userSpaceOnUse"><stop stop-color="#2E8BDB"/><stop offset="1" stop-color="#2E8BDB" stop-opacity="0"/></linearGradient><linearGradient id="e" x1="13.57" x2="12.704" y1="12.471" y2="11.916" gradientUnits="userSpaceOnUse"><stop stop-color="#32B3EA"/><stop offset="1" stop-color="#32B3EA" stop-opacity="0"/></linearGradient><linearGradient id="g" x1="19.578" x2="20.203" y1="13.594" y2="13.188" gradientUnits="userSpaceOnUse"><stop offset=".17" stop-color="#20D0F6"/><stop offset="1" stop-color="#20D0F6" stop-opacity="0"/></linearGradient><linearGradient id="h" x1="9.019" x2="15.99" y1="15.375" y2="29.734" gradientUnits="userSpaceOnUse"><stop offset=".379" stop-color="#296BCC"/><stop offset="1" stop-color="#3E7DE1"/></linearGradient><linearGradient id="i" x1="9.019" x2="9.019" y1="15.375" y2="15.781" gradientUnits="userSpaceOnUse"><stop stop-color="#2D75D2"/><stop offset="1" stop-color="#2D75D2" stop-opacity="0"/></linearGradient><linearGradient id="k" x1="17.563" x2="18.063" y1="24.898" y2="25.094" gradientUnits="userSpaceOnUse"><stop stop-color="#368FE1"/><stop offset="1" stop-color="#368FE1" stop-opacity="0"/></linearGradient><linearGradient id="l" x1="22.959" x2="22.959" y1="15.063" y2="16.094" gradientUnits="userSpaceOnUse"><stop stop-color="#309EE9"/><stop offset="1" stop-color="#309EE9" stop-opacity="0"/></linearGradient><linearGradient id="m" x1="19.672" x2="11.078" y1="11.312" y2="17.312" gradientUnits="userSpaceOnUse"><stop stop-color="#6CE8FE"/><stop offset=".642" stop-color="#68CAEA"/></linearGradient><radialGradient id="f" cx="0" cy="0" r="1" gradientTransform="matrix(8.25 -.82813 1.11925 11.15027 17.984 12.5)" gradientUnits="userSpaceOnUse"><stop stop-color="#20D5FC"/><stop offset="1" stop-color="#20BFF7"/></radialGradient><radialGradient id="j" cx="0" cy="0" r="1" gradientTransform="matrix(5.72464 -10.31253 5.40695 3.00148 17.234 29.563)" gradientUnits="userSpaceOnUse"><stop stop-color="#42A2EC"/><stop offset="1" stop-color="#3294E4"/></radialGradient></defs></svg>
